X:25
T:I Wandered By A Brookside
M:4/4
L:1/4
K:G
D|"G"D<D "C"E>D|"G"D(G G)G/A/|BG "C"GE|"D"D3 D|"G"D<D "C"E>D|
"G"D(G G)G|GE BG|"D7"A3 D|"G"D<D "C"E>D|"G"D(G G)G/A/|
BG "C"GE|"D"D3 G/A/|"G"B<B "D"A>F|"G"G2 DD/D/|"C"EG "D7"AF|
"G"G3 G/A/|B<B "D"A>F|"G"G2 DD/D/|"C"E<G "D7"AF|"G"G3|]
W:I wandered by a brookside...

